X:161
T:Lamb Skinnet
M:6/8
L:1/8
K:A
e|"A"Ace ecA|"D"d2 f f2 a|"A"Ace ecA|"E"G2 B B2 c|!
"A"Ace ecA|"D"d2 f f2 a|"E"gfe "B"fe^D|"E"e3 E2:||!
e/2f/2|"A"aec aec|"D"d2 f f2 a|"A"ecA ecA|"E7"G2 B Bcd|!
"A"aec aec|"D"d2 f fga|"A"ecA "E7"ecA|"A"A3 A2:||
% <A name="D1X162">
